X: 13965
T: Frances John McGovern
R: reel
M: 4/4
K: Gmajor
B2BA GEDE|G2 BG cG BG|B2BA GEDE|GAAG A2 GA:|
(3Bcd ed gded|gded BAGA|(3Bcd ed g2 fg|eaag aged|
(3Bcd g2 ed|g2 ed BAGA|B2BA GEDE|GAAG A4|

